FINK
CUT[WENN ICH DEN WANDRER FRAGE]
REG[Europa, Mitteleuropa, Deutschland]
KEY[F0459  16  C 4/4]
MEL[  -3__-3_.-2-1__-3__  -6___-5__0__
    -5___-5__-5__  2___0__
    -5__  -5___-3__1__  3___1__
    -6__  -5__.-5_-7_-6_-5_-4_  -3___0__
    -5__  -5___-3__1__  3___1__
    -6__  -5__.-5_-5__-5__  -5___.0__ //] >>
FCT[Heimat - Lied, Heimweh]
